X:1
T:Ivory Palaces
T:Henry Barraclough, 1915
T:Ivory Palaces
T:Public Domain
T:Public Domain
C:Henry Barraclough, 1915
Z:Public Domain
%%score ( 1 2 ) ( 3 4 )
L:1/8
M:6/4
K:E
V:1 treble 
V:2 treble 
V:3 bass 
V:4 bass 
V:1
 B,2 | [EG]4 [EG]2 [DF]3 [EG] [DA]2 | [EB]4 [B,D]2 [B,E]4 E2 | [Ec]4 [EB]2 [DA]4 [EG]2 | %4
w: 1.~My|has gar- ments so won-|drous fine, And myrrh|tex- ture fills; Its|
w: 2.~His|had al- so its sor-|rows sore, For al-|had a part; And|
w: 3.~His|ments too were in cas-|sia dipped, With heal-|in a touch; Each|
w: 4.~In|ments glor- i- ous He|will come, To o-|wide the door; And|
 [DF]6- [DF]4 B,2 | [EG]4 [EG]2 [DF]3 [EG] [FA]2 | ([GB]2 [^^Fd]2) [^Ac]2 [GB]4 [E=A]2 | %7
w: frag- * rance|to this heart of mine|With * joy my be-|
w: when * I|of the cross He bore,|My * eyes with tear-|
w: time * my|in some sin have slipped,|He * took me from|
w: I * shall|ter my heav’n- ly home,|To * dwell for- ev-|
 (G2 B2) [EA]2 C4 [B,D]2 | [B,E]8 ||"^Refrain" [B,G]4 [CG][DG] [EG]3 [DG] [EG]2 | %10
w: ing * thrills. * *|||
w: drops * start. Out of|vor-|y pal- ac- es, In- to|
w: its * clutch. * *|||
w: er- * more. * *|||
 [GB]4 [^^F^A]2 [^F=A]6 | [CA]4 [DA][EA] [FA]4 [CA]2 | [B,G]8 | [B,G]4 [CG][DG] [EG]4 [GB]2 | %14
w: ||||
w: a world of|woe, On- ly His great|e-|ter- nal love Made my|
w: ||||
w: ||||
 [Fd]4 [^Ac]2 (G2 D2 [C=A]2) | ([B,G]2 [DB]2) [FA]2 [DF]2 [DG]4 | [G,E]6- [G,E]4 |] %17
w: |||
w: Sav- ior go. * *|||
w: |||
w: |||
V:2
 B,2 | x12 | x10 E2 | x12 | x10 B,2 | x12 | x12 | E4 C4 x4 | x8 || x12 | x12 | x12 | x8 | x12 | %14
w: Lord||their||reached||||||||||
w: life||oes||think|||the i-|||||||
w: gar-||ing||feet||||||||||
w: gar-||pen||en-||||||||||
 x6 B4 x2 | x12 | x10 |] %17
w: |||
w: |||
w: |||
w: |||
V:3
 [B,,B,]2 | [E,B,]4 [E,B,]2 [A,B,]3 [G,B,] [F,B,]2 | [G,B,]4 [B,,A,]2 [E,G,]4 [G,B,]2 | %3
w: ~|~ ~ ~ ~ ~|~ ~ ~ ~|
 A,4 [G,B,]2 [F,B,]4 [E,B,]2 | [B,,B,]6- [B,,B,]4 [B,,B,]2 | %5
w: ~ ~ ~ ~|~ * ~|
 [E,B,]4 [E,B,]2 [A,B,]3 [G,B,] [F,B,]2 | ([E,B,]2 [D,C]2) [^^F,D]2 [G,D]4 [C,A,]2 | %7
w: ~ ~ ~ ~ ~|~ * ~ ~ ~|
 (B,2 D2) [B,,C]2 [B,,A,]4 [B,,A,]2 | [E,G,]8 || E,6 [E,B,]6 | [B,,E]4 [C,C]2 [B,,D]6 | %11
w: ~ * ~ ~ ~||||
 [B,,D]6 [B,,D]6 | [E,E]8 | [E,G,]4 [E,G,][E,G,] [E,B,]4 [E,G,]2 | %14
w: |||
 [D,^A,]4 [^^F,D]2 (G,2 G,,2 [^A,,E]2) | ([B,,E]2 [G,,D]2) [A,,C]2 [B,,B,]2 [B,,A,]4 | %16
w: ||
 [E,,G,]6- [E,,G,]4 |] %17
w: |
V:4
 x2 | x12 | x12 | A,4 x8 | x12 | x12 | x12 | B,,4 x8 | x8 || E,6 x6 | x12 | x12 | x8 | x12 | %14
w: |||~|||||||||||
 x6 D4 x2 | x12 | x10 |] %17
w: |||

